X: 1
T: Belleisle March  v.1
P: piffero primo a0077
O: Cushing
%R: march
F: http://ancients.sudburymuster.org/mus/ssp/pdf/belleisleF.pdf
Z: 2019 John Chambers <jc:trillian.mit.edu>
M: 4/4
L: 1/8
K: G
D2 |\
G2G>B A2A>c | B2g>e {e}d3c |\
B2 (3dBG A2 (3cAF | G2G>G G2 :: d2 |\
d>ed>c B2B2 | c>dc>B A2A2 |
d>ed>c B>cB>c | de dc/B/ {B}A2D2 |\
G2G>B A2A>c | B2g>e {e}d3c |\
B2 (3dBG A2 (3cAF | G2G>G G2 :|


